X: 2
T: Camowen, The
Z: Ediot
S: https://thesession.org/tunes/11581#setting26079
R: polka
M: 2/4
L: 1/8
K: Gmaj
D B,A,|:G,2 G,>B,|DB, DG|{A}B2 BA|B2 B/c/d|B2 BA|
Bd GB|A2 AB|A2 FD|A,2 A,>B,|c,D ED|F2 FE|F3 G|Ad fe|
[1de cd|B2 BA|BD B,A,:|[2dc AF|G2 GF| G2 gf||
|:ef/e/ dB|AB GA|Bd ef|g2 fg|eA AB|d>e dB|GB AG|
E2 G>A|Bd dB|d e/f/g/ e|dB AG|B2 Bd|
g>e dB|AG AB|d>B AB|1Gg gf:|2GD B,A,||
